gfx/socialDon.svg

<svg fill="none" height="24" viewBox="0 0 24 24" width="24" xmlns="http://www.w3.org/2000/svg"><path d="m11.6653 0c2.0434.0083474 3.4843.0868838 4.5342.205638l.3996.049576.4181.065029c3.0157.54886 5.4618 2.890587 5.871 5.908627.0534.53601.0797 1.16862.0853 1.89405.0049.63482-.0057 1.28519-.0279 2.03128l-.0118.3706-.0453 2.0424c-.2374 3.7059-2.4934 5.8807-5.789 6.5066l-.0152.0035.028.2997-.0011 1.572c-.0401.3635-.049.4443-.1378.661l-.0983.2289c-.1946.308-.2378.3764-.4199.538l-.1969.169c-.4257.3052-.8813.5172-1.4419.7129l-.103.0357-.5081.163c-.2644.0822-.5316.1544-.8106.2185-2.3691.5337-4.84136.4047-7.15605-.378-2.5721-.8929-4.81954-2.9887-5.429881-5.4637-.267947-1.1016-.456748-2.2206-.565676-3.3561-.063075-.6842-.099833-1.2677-.134004-2.1301l-.10426296-3.12573c-.02597224-1.24977.05109636-2.355.27474096-3.38478.654961-2.94571 3.256963-5.111924 6.320593-5.55991l.37892-.061425.43962-.060439.43966-.044547c.70136-.0611912 1.60152-.098978 2.78044-.10915458zm-.0081 1.9999h-.655c-2.1749.00844-3.14919.10712-3.66272.1829l-.67453.11105c-2.09261.38751-3.96628 1.87846-4.43306 3.97783-.23253 1.07082-.25735 2.258-.21415 3.347l.06166 1.87262c.03051.9357.06922 1.8702.15525 2.8034.09912 1.0331.27204 2.058.51746 3.067.45955 1.8634 2.31983 3.4142 4.14242 4.0469 1.95136.6598 4.04987.7693 6.06057.3163.2212-.0509.44-.11.6563-.1772.488-.1536 1.0606-.3255 1.4816-.6273.0058-.0042.0105-.0096.0138-.016l.0039-.0098.0016-1.5176-.0047-.0192-.0126-.0152-.018-.0085c-.0065-.0014-.0133-.0014-.0199.0001l-.4845.107c-1.1338.2331-2.2894.3496-3.4483.3475-2.1166 0-2.79638-.9225-3.02326-1.4109l-.04477-.1044c-.1411-.385-.23071-.7865-.26653-1.1944l.00371-.02.01244-.0161.01849-.0089c.00677-.0015.01379-.0013.02051.0004l.47648.1064c1.11503.2317 2.25183.3484 3.39203.3481.3134 0 .6259 0 .9394-.0081 1.3106-.0364 2.692-.1028 3.9815-.3518l.2765-.0575c1.9651-.4241 3.791-1.6545 3.9818-4.6322l.0265-1.456c.0111-.5767.1314-3.02644-.021-4.55616-.2923-2.14892-2.1857-3.84241-4.4301-4.17056l-.4482-.0583c-.5806-.06637-1.6628-.15886-3.4581-.18902zm2.9781 3.18098c.9448 0 1.7067.32905 2.2895.9699.5631.64177.8446 1.50836.8446 2.5998l-.0018 5.33862h-2.1388v-5.18137c0-1.09082-.4595-1.64713-1.3943-1.64713-1.0275 0-1.5422.65813-1.5422 1.958v2.8361h-2.1259v-2.8361c0-1.29987-.5156-1.958-1.5432-1.958-.92923 0-1.39339.55631-1.39431 1.64713v5.18137h-2.13692v-5.33862c0-1.09083.28156-1.95741.84466-2.5998.58087-.64085 1.34282-.9699 2.28859-.9699 1.09464 0 1.92188.41631 2.47328 1.24808l.5322.88356.5331-.88356c.5514-.83177 1.3787-1.24808 2.4715-1.24808z" fill="#000"/><path d="m11.31.99939c3.2046.0123 4.6144.17342 5.156.24701 1.5069.21952 2.7312.83401 3.6632 1.71144.9424.88715 1.5844 2.04591 1.7597 3.3346.1354 1.3525.0741 3.33008.0424 4.29526-.0137.6276-.0332 1.7895-.0408 1.9156-.1064 1.6597-.6579 2.8536-1.4286 3.7174-.9342 1.0471-2.2167 1.6177-3.5445 1.8699-.1796.035-.3592.0667-.5387.0955l-.3605.0513.1091 3.052c-.49.5905-1.2489.8984-1.9454 1.1261l-.2067.0661c-.3112.097-.5522.1619-.8003.2189-2.19.4934-4.47548.3741-6.60836-.3471-2.13321-.7406-4.25229-2.5905-4.78615-4.7553-.25669-1.0554-.43754-2.1273-.54157-3.2116-.10602-1.1501-.14207-2.3021-.17755-3.4558-.01303-.424-.02607-.8482-.04279-1.27233-.046467-1.17135-.01387-2.44752.2372-3.60368.28213-1.26887.98582-2.35734 1.9425-3.18197.98112-.8457 2.2287-1.41068 3.53603-1.60399.60706-.10441 1.55117-.269348 4.57579-.26934zm-2.00277 17.32301.039.0339c.0688.0521.14906.1026.24252.1487.35306.1744.84945.2838 1.53725.2838 1.1592.0021 2.3148-.1219 3.4461-.3697l.1771-.0417-.5083.0369c-.3521.022-.7015.0377-1.047.05l-.5151.0162c-.3221.0084-.6433.0085-.9652.0085-.6907.0002-1.3802-.0402-2.06486-.1206z" stroke="#000" stroke-width="2"/><path d="m17.7676 14.0892h-2.1388v-5.18134c0-1.09082-.4595-1.64713-1.3943-1.64713-1.0276 0-1.5422.65813-1.5422 1.958v2.83617h-2.1259v-2.83617c0-1.29987-.5157-1.958-1.54323-1.958-.92923 0-1.39338.55631-1.3943 1.64713v5.18134h-2.13693v-5.3386c0-1.09082.28157-1.95741.84467-2.59979.58087-.64085 1.34282-.9699 2.28859-.9699 1.09464 0 1.9218.41631 2.4733 1.24808l.5322.88356.5331-.88356c.5514-.83177 1.3786-1.24808 2.4715-1.24808.9448 0 1.7067.32905 2.2894.9699.5632.64176.8447 1.50835.8447 2.59979z" fill="#000"/></svg>

<svg width="24" height="24" viewBox="0 0 24 24" fill="none" xmlns="http://www.w3.org/2000/svg">
<path d="M11.6653 0C13.7087 0.0083474 15.1496 0.0868838 16.1995 0.205638L16.5991 0.255214L17.0172 0.320243C20.0329 0.869103 22.479 3.21083 22.8882 6.22887C22.9416 6.76488 22.9679 7.39749 22.9735 8.12292C22.9784 8.75774 22.9678 9.40811 22.9456 10.1542L22.9338 10.5248L22.8885 12.5672C22.6511 16.2731 20.3951 18.4479 17.0995 19.0738L17.0843 19.0773L17.1123 19.377L17.1112 20.949C17.0711 21.3125 17.0622 21.3933 16.9734 21.61L16.8751 21.8389C16.6805 22.1469 16.6373 22.2153 16.4552 22.3769L16.2583 22.5459C15.8326 22.8511 15.377 23.0631 14.8164 23.2588L14.7134 23.2945L14.2053 23.4575C13.9409 23.5397 13.6737 23.6119 13.3947 23.676C11.0256 24.2097 8.55334 24.0807 6.23865 23.298C3.66655 22.4051 1.41911 20.3093 0.808769 17.8343C0.540822 16.7327 0.352021 15.6137 0.243093 14.4782C0.180018 13.794 0.14326 13.2105 0.109089 12.3481L0.00482604 9.22237C-0.0211462 7.9726 0.0559224 6.86737 0.279567 5.83759C0.934528 2.89188 3.53653 0.725666 6.60016 0.27768L6.97908 0.216255L7.4187 0.155816L7.85836 0.111269C8.55972 0.0500778 9.45988 0.012291 10.6388 0.00211442L11.6653 0ZM11.6572 1.9999H11.0022C8.8273 2.00834 7.85301 2.10702 7.33948 2.1828L6.66495 2.29385C4.57234 2.68136 2.69867 4.17231 2.23189 6.27168C1.99936 7.3425 1.97454 8.52968 2.01774 9.61868L2.0794 11.4913C2.10991 12.427 2.14862 13.3615 2.23465 14.2947C2.33377 15.3278 2.50669 16.3527 2.75211 17.3617C3.21166 19.2251 5.07194 20.7759 6.89453 21.4086C8.84589 22.0684 10.9444 22.1779 12.9551 21.7249C13.1763 21.674 13.3951 21.6149 13.6114 21.5477C14.0994 21.3941 14.672 21.2222 15.093 20.9204C15.0988 20.9162 15.1035 20.9108 15.1068 20.9044L15.1107 20.8946L15.1123 19.377L15.1076 19.3578L15.095 19.3426L15.077 19.3341C15.0705 19.3327 15.0637 19.3327 15.0571 19.3342L14.5726 19.4412C13.4388 19.6743 12.2832 19.7908 11.1243 19.7887C9.0077 19.7887 8.32792 18.8662 8.10104 18.3778L8.05627 18.2734C7.91517 17.8884 7.82556 17.4869 7.78974 17.079L7.79345 17.059L7.80589 17.0429L7.82438 17.034C7.83115 17.0325 7.83817 17.0327 7.84489 17.0344L8.32137 17.1408C9.4364 17.3725 10.5732 17.4892 11.7134 17.4889C12.0268 17.4889 12.3393 17.4889 12.6528 17.4808C13.9634 17.4444 15.3448 17.378 16.6343 17.129L16.9108 17.0715C18.8759 16.6474 20.7018 15.417 20.8926 12.4393L20.9191 10.9833C20.9302 10.4066 21.0505 7.95686 20.8981 6.42714C20.6058 4.27822 18.7124 2.58473 16.468 2.25658L16.0198 2.19828C15.4392 2.13191 14.357 2.03942 12.5617 2.00926L11.6572 1.9999ZM14.6353 5.18088C15.5801 5.18088 16.342 5.50993 16.9248 6.15078C17.4879 6.79255 17.7694 7.65914 17.7694 8.75058L17.7676 14.0892H15.6288V8.90783C15.6288 7.81701 15.1693 7.2607 14.2345 7.2607C13.207 7.2607 12.6923 7.91883 12.6923 9.2187V12.0548H10.5664V9.2187C10.5664 7.91883 10.0508 7.2607 9.0232 7.2607C8.09397 7.2607 7.62981 7.81701 7.62889 8.90783V14.0892H5.49197V8.75058C5.49197 7.65975 5.77353 6.79317 6.33663 6.15078C6.9175 5.50993 7.67945 5.18088 8.62522 5.18088C9.71986 5.18088 10.5471 5.59719 11.0985 6.42896L11.6307 7.31252L12.1638 6.42896C12.7152 5.59719 13.5425 5.18088 14.6353 5.18088Z" fill="black" style="fill:black;fill-opacity:1;"/>
<path d="M11.31 0.99939C14.5146 1.01169 15.9244 1.17281 16.466 1.2464C17.9729 1.46592 19.1972 2.08041 20.1292 2.95784C21.0716 3.84499 21.7136 5.00375 21.8889 6.29244C22.0243 7.64494 21.963 9.62252 21.9313 10.5877C21.9176 11.2153 21.8981 12.3772 21.8905 12.5033C21.7841 14.163 21.2326 15.3569 20.4619 16.2207C19.5277 17.2678 18.2452 17.8384 16.9174 18.0906C16.7378 18.1256 16.5582 18.1573 16.3787 18.1861L16.0182 18.2374L16.1273 21.2894C15.6373 21.8799 14.8784 22.1878 14.1819 22.4155L13.9752 22.4816C13.664 22.5786 13.423 22.6435 13.1749 22.7005C10.9849 23.1939 8.69942 23.0746 6.56654 22.3534C4.43333 21.6128 2.31425 19.7629 1.78039 17.5981C1.5237 16.5427 1.34285 15.4708 1.23882 14.3865C1.1328 13.2364 1.09675 12.0844 1.06127 10.9307C1.04824 10.5067 1.0352 10.0825 1.01848 9.65837C0.972013 8.48702 1.00461 7.21085 1.25568 6.05469C1.53781 4.78582 2.2415 3.69735 3.19818 2.87272C4.1793 2.02702 5.42688 1.46204 6.73421 1.26873C7.34127 1.16432 8.28538 0.999382 11.31 0.99939ZM9.30723 18.3224L9.34623 18.3563C9.41503 18.4084 9.49529 18.4589 9.58875 18.505C9.94181 18.6794 10.4382 18.7888 11.126 18.7888C12.2852 18.7909 13.4408 18.6669 14.5721 18.4191L14.7492 18.3774L14.2409 18.4143C13.8888 18.4363 13.5394 18.452 13.1939 18.4643L12.6788 18.4805C12.3567 18.4889 12.0355 18.489 11.7136 18.489C11.0229 18.4892 10.3334 18.4488 9.64874 18.3684L9.30723 18.3224Z" stroke="black" style="stroke:black;stroke-opacity:1;" stroke-width="2"/>
<path d="M17.7676 14.0892H15.6288V8.90786C15.6288 7.81704 15.1693 7.26073 14.2345 7.26073C13.2069 7.26073 12.6923 7.91886 12.6923 9.21873V12.0549H10.5664V9.21873C10.5664 7.91886 10.0507 7.26073 9.02317 7.26073C8.09394 7.26073 7.62979 7.81704 7.62887 8.90786V14.0892H5.49194V8.7506C5.49194 7.65978 5.77351 6.79319 6.33661 6.15081C6.91748 5.50996 7.67943 5.18091 8.6252 5.18091C9.71984 5.18091 10.547 5.59722 11.0985 6.42899L11.6307 7.31255L12.1638 6.42899C12.7152 5.59722 13.5424 5.18091 14.6353 5.18091C15.5801 5.18091 16.342 5.50996 16.9247 6.15081C17.4879 6.79257 17.7694 7.65916 17.7694 8.7506L17.7676 14.0892Z" fill="black" style="fill:black;fill-opacity:1;"/>
</svg>
